Adwaita++/actions/22/group-edit.svg

<svg height="22" width="22" xmlns="http://www.w3.org/2000/svg">
  <g fill="#444" transform="translate(3 -3)">
    <path d="m2 8s-1 0-1 1v11s0 1 1 1h7v-2.414l5-5 1 1v-3.586c0-1-1-1-1-1h-5l-2-2z"/>
    <path d="m14 15-4 4v1.996l2 .004 4-4z"/>
  </g>
</svg>

<svg xmlns="http://www.w3.org/2000/svg" width="22" height="22" version="1.1">
 <defs>
  <style id="current-color-scheme" type="text/css">
   .ColorScheme-Text { color:#444444; } .ColorScheme-Highlight { color:#4285f4; }
  </style>
 </defs>
 <g transform="translate(3,-3)">
  <path style="fill:currentColor" class="ColorScheme-Text" d="M 2,8 C 2,8 1,8 1,9 V 20 C 1,20 1,21 2,21 H 9 V 18.586 L 14,13.586 15,14.586 V 11 C 15,10 14,10 14,10 H 9 L 7,8 Z"/>
  <path style="fill:currentColor" class="ColorScheme-Text" d="M 14,15 10,19 V 20.996 L 12,21 16,17 Z"/>
 </g>
</svg>
